X: 19547
T: James Byrne's
R: slip jig
M: 9/8
K: Dmajor
d2f afd {de}dcd|Bcd efd cBA|d2f afd {de}dcd|Bcd edc d2A|
d/d/df afd {de}dcd|Bcd efd cBA|d2f afd {de}dcd|Bcd edc def||
ecA !!A!4!A!!A cBA|d2e fdf agf|ecA !!A!4!A!!A cBA|d2e fdc dgf|
ecA !!A!4!A!!A cBA|d2e fdf agf|ecA !!A!4!A!!A cBA|d2e fdc d2A||

